flags/gb-sct.svg

<svg xmlns="http://www.w3.org/2000/svg" width="512" height="512" fill="none"><path fill="var(--flag-palette-blue, #0052b4)" d="M0 0h512v512H0z"/><path fill="var(--flag-palette-white, #eeeeee)" d="M464 512h48v-48L304 256 512 48V0h-48L256 208 48 0H0v48l208 208L0 464v48h48l208-208z"/></svg>

<svg width="512" height="512" viewBox="0 0 512 512" fill="none" xmlns="http://www.w3.org/2000/svg">
<rect width="512" height="512" fill="var(--flag-palette-blue, #0052b4)"/>
<path d="M464 512H512V464L304 256L512 48V0H464L256 208L48 0H0V48L208 256L0 464V512H48L256 304L464 512Z" fill="var(--flag-palette-white, #eeeeee)"/>
</svg>
